X: 234
T: Camley Garden
%R: reel
Z: 2014 John Chambers <jc:trillian.mit.edu>
B: Preston "Twenty four Country Dances for the Year 1794" p.97 #2
F: http://www.vwml.org/browse/browse-collections-dance-tune-books/browse-prestons1794# 2014-8-10
M: C|
L: 1/8
K: Amix
e |\
cA c/d/e a2eg | fdg2 BG2B |\
cA c/d/e a2eg | dgBd eA A :|\
|: e |\
c/B/A eA ce2a | gdBG Bd2e |
c/B/A eA ce2g | dgBd eA2e |\
c/B/A eA ce2a | gdBG Bd2e |\
c/B/A ae fdgd | BGBd eA A :|
% - - - - - - - - - - - - - - - - - - - - - - - - -
%%begintext align
%% Foot it & right hands across .|
%% Foot it & left hands back again :|
%% Lead down the middle up again :|.
%% Allemande :|:
%%endtext
% - - - - - - - - - - - - - - - - - - - - - - - - -

%%sep 1 1 500
%%sep 1 1 500
